images/themes/sigpacgo/nodpi/ic_list_visible_black_24dp.svg

<svg xmlns="http://www.w3.org/2000/svg" xmlns:xlink="http://www.w3.org/1999/xlink" width="24" height="24" viewBox="0 0 24 24">
<path fill-rule="nonzero" fill="rgb(0%, 0%, 0%)" fill-opacity="1" d="M 3 13 L 5 13 L 5 11 L 3 11 Z M 3 17 L 5 17 L 5 15 L 3 15 Z M 3 9 L 5 9 L 5 7 L 3 7 Z M 7 13 L 11.878906 13 C 15.367188 10.71875 19.121094 11.457031 21 12.382812 L 21 11 L 7 11 Z M 7 17 L 8.582031 17 C 8.785156 16.449219 9.214844 15.722656 9.726562 15 L 7 15 Z M 7 7 L 7 9 L 21 9 L 21 7 Z M 7 7 "/>
<path fill-rule="nonzero" fill="rgb(0%, 0%, 0%)" fill-opacity="1" d="M 17 20 C 17.984375 20 18.894531 19.773438 19.738281 19.324219 C 20.578125 18.875 21.25 18.265625 21.75 17.5 C 21.25 16.734375 20.578125 16.125 19.738281 15.675781 C 18.894531 15.226562 17.984375 15 17 15 C 16.015625 15 15.105469 15.226562 14.261719 15.675781 C 13.421875 16.125 12.75 16.734375 12.25 17.5 C 12.75 18.265625 13.421875 18.875 14.261719 19.324219 C 15.105469 19.773438 16.015625 20 17 20 Z M 17 22 C 15.398438 22 13.972656 21.578125 12.714844 20.738281 C 11.453125 19.894531 10.550781 18.816406 10 17.5 C 10.550781 16.183594 11.453125 15.105469 12.714844 14.261719 C 13.972656 13.421875 15.398438 13 17 13 C 18.601562 13 20.03125 13.421875 21.289062 14.261719 C 22.546875 15.105469 23.449219 16.183594 24 17.5 C 23.449219 18.816406 22.546875 19.894531 21.289062 20.738281 C 20.03125 21.578125 18.601562 22 17 22 Z M 17 19 C 16.582031 19 16.230469 18.855469 15.9375 18.5625 C 15.644531 18.269531 15.5 17.917969 15.5 17.5 C 15.5 17.082031 15.644531 16.730469 15.9375 16.4375 C 16.230469 16.144531 16.582031 16 17 16 C 17.417969 16 17.769531 16.144531 18.0625 16.4375 C 18.355469 16.730469 18.5 17.082031 18.5 17.5 C 18.5 17.917969 18.355469 18.269531 18.0625 18.5625 C 17.769531 18.855469 17.417969 19 17 19 Z M 17 19 "/>
</svg>

<?xml version="1.0" encoding="UTF-8"?>
<svg width="24" height="24" version="1.1" viewBox="0 0 24 24" xmlns="http://www.w3.org/2000/svg">
 <path d="M0 0h24v24H0z" fill="none"/>
 <path d="m3 13h2v-2h-2zm0 4h2v-2h-2zm0-8h2v-2h-2zm4 4h4.8786c3.4892-2.2817 7.2414-1.5414 9.1214-0.61575v-1.3843h-14zm0 4h1.5818c0.20394-0.5527 0.63343-1.2787 1.1447-2h-2.7265zm0-10v2h14v-2z"/>
 <path d="m17 20c0.98333 0 1.896-0.225 2.738-0.675 0.84133-0.45 1.512-1.0583 2.012-1.825-0.5-0.76667-1.1707-1.375-2.012-1.825-0.842-0.45-1.7547-0.675-2.738-0.675s-1.896 0.225-2.738 0.675c-0.84133 0.45-1.512 1.0583-2.012 1.825 0.5 0.76667 1.1707 1.375 2.012 1.825 0.842 0.45 1.7547 0.675 2.738 0.675zm0 2c-1.6 0-3.029-0.42067-4.287-1.262-1.2587-0.842-2.163-1.9213-2.713-3.238 0.55-1.3167 1.4543-2.396 2.713-3.238 1.258-0.84133 2.687-1.262 4.287-1.262s3.0293 0.42067 4.288 1.262c1.258 0.842 2.162 1.9213 2.712 3.238-0.55 1.3167-1.454 2.396-2.712 3.238-1.2587 0.84133-2.688 1.262-4.288 1.262zm0-3c-0.41667 0-0.77067-0.146-1.062-0.438-0.292-0.29133-0.438-0.64533-0.438-1.062s0.146-0.77067 0.438-1.062c0.29133-0.292 0.64533-0.438 1.062-0.438s0.77067 0.146 1.062 0.438c0.292 0.29133 0.438 0.64533 0.438 1.062s-0.146 0.77067-0.438 1.062c-0.29133 0.292-0.64533 0.438-1.062 0.438z"/>
</svg>
